packages/match-icons/product/svg/two-factor-authentication.svg

<svg fill="none" height="32" viewBox="0 0 32 32" width="32" xmlns="http://www.w3.org/2000/svg" xmlns:xlink="http://www.w3.org/1999/xlink"><clipPath id="a"><path d="m0 0h32v32h-32z"/></clipPath><g clip-path="url(#a)" fill="#394762"><path d="m9 27c1.1046 0 2-.8954 2-2s-.8954-2-2-2c-1.10457 0-2 .8954-2 2s.89543 2 2 2z"/><path d="m23 9c1.1046 0 2-.89543 2-2s-.8954-2-2-2-2 .89543-2 2 .8954 2 2 2z"/><path d="m10 18.08v-11.57998c0-.66304-.26339-1.29892-.73223-1.76776s-1.10473-.73224-1.76777-.73224h-6.25c-.265216 0-.51957.10536-.707107.2929-.187536.18753-.292893.44189-.292893.7071 0 .26522.105357.51957.292893.70711.187537.18754.441891.29289.707107.29289h6.25c.13261 0 .25979.05268.35355.14645.09377.09377.14645.22095.14645.35355v3.49998h-6.75c-.265216 0-.51957.1054-.707107.2929-.187536.1876-.292893.4419-.292893.7071s.105357.5196.292893.7071c.187537.1876.441891.2929.707107.2929h6.75v6.08c-1.75159.2528-3.3424 1.1597-4.4523 2.5382-1.10989 1.3784-1.65646 3.1261-1.52973 4.8913.12674 1.7652.91738 3.4169 2.21281 4.6226 1.29542 1.2058 2.99948 1.8761 4.76922 1.8761 1.7697 0 3.4738-.6703 4.7692-1.8761 1.2955-1.2057 2.0861-2.8574 2.2128-4.6226.1268-1.7652-.4198-3.5129-1.5297-4.8913-1.1099-1.3785-2.7007-2.2854-4.4523-2.5382zm-1 11.92c-.98891 0-1.95561-.2932-2.77785-.8426-.82225-.5494-1.46311-1.3303-1.84155-2.244-.37844-.9136-.47745-1.9189-.28453-2.8888.19293-.9699.66913-1.8608 1.3684-2.5601.69926-.6993 1.59017-1.1755 2.56008-1.3684.9699-.1929 1.97524-.0939 2.88885.2845.9136.3785 1.6945 1.0193 2.2439 1.8416.5495.8222.8427 1.7889.8427 2.7778 0 .6566-.1293 1.3068-.3806 1.9134-.2513.6067-.6196 1.1579-1.0839 1.6222s-1.0155.8325-1.6221 1.0838-1.25679.3806-1.9134.3806zm21.75-4h-6.25c-.1326 0-.2598-.0527-.3536-.1464-.0937-.0938-.1464-.221-.1464-.3536v-3.5h6.75c.2652 0 .5196-.1053.7071-.2929.1875-.1875.2929-.4419.2929-.7071s-.1054-.5195-.2929-.7071c-.1875-.1875-.4419-.2929-.7071-.2929h-6.75v-6.08c1.7516-.2528 3.3424-1.1597 4.4523-2.5381 1.1099-1.3785 1.6565-3.12617 1.5297-4.89137-.1267-1.76519-.9173-3.41687-2.2128-4.62262-1.2954-1.205759-2.9995-1.87608871-4.7692-1.87608871s-3.4738.67032971-4.7692 1.87608871c-1.2955 1.20575-2.0861 2.85743-2.2128 4.62262-.1268 1.7652.4198 3.51287 1.5297 4.89137 1.1099 1.3784 2.7007 2.2853 4.4523 2.5381v11.58c0 .6631.2634 1.299.7322 1.7678.4689.4688 1.1048.7322 1.7678.7322h6.25c.2652 0 .5196-.1053.7071-.2929.1875-.1875.2929-.4419.2929-.7071s-.1054-.5195-.2929-.7071c-.1875-.1875-.4419-.2929-.7071-.2929zm-12.75-18.99998c0-.9889.2932-1.9556.8427-2.77785.5494-.82224 1.3303-1.4631 2.2439-1.84154s1.9189-.47746 2.8889-.28453c.9699.19292 1.8608.66913 2.56 1.36839.6993.69926 1.1755 1.59018 1.3684 2.56008.193.96991.0939 1.97524-.2845 2.88887s-1.0193 1.69456-1.8415 2.24396c-.8223.5494-1.789.8426-2.7779.8426-1.3261 0-2.5979-.5268-3.5355-1.4644-.9377-.93772-1.4645-2.20949-1.4645-3.53558z"/></g></svg>

<svg width="32" height="32" viewBox="0 0 32 32" fill="none" xmlns="http://www.w3.org/2000/svg">
<g clip-path="url(#clip0)">
<path d="M9 27C10.1046 27 11 26.1046 11 25C11 23.8954 10.1046 23 9 23C7.89543 23 7 23.8954 7 25C7 26.1046 7.89543 27 9 27Z" fill="#394762"/>
<path d="M23 9C24.1046 9 25 8.10457 25 7C25 5.89543 24.1046 5 23 5C21.8954 5 21 5.89543 21 7C21 8.10457 21.8954 9 23 9Z" fill="#394762"/>
<path d="M10 18.08V6.50002C10 5.83698 9.73661 5.2011 9.26777 4.73226C8.79893 4.26342 8.16304 4.00002 7.5 4.00002H1.25C0.984784 4.00002 0.73043 4.10538 0.542893 4.29292C0.355357 4.48045 0.25 4.73481 0.25 5.00002C0.25 5.26524 0.355357 5.51959 0.542893 5.70713C0.73043 5.89467 0.984784 6.00002 1.25 6.00002H7.5C7.63261 6.00002 7.75979 6.0527 7.85355 6.14647C7.94732 6.24024 8 6.36742 8 6.50002V10H1.25C0.984784 10 0.73043 10.1054 0.542893 10.2929C0.355357 10.4805 0.25 10.7348 0.25 11C0.25 11.2652 0.355357 11.5196 0.542893 11.7071C0.73043 11.8947 0.984784 12 1.25 12H8V18.08C6.24841 18.3328 4.6576 19.2397 3.5477 20.6182C2.43781 21.9966 1.89124 23.7443 2.01797 25.5095C2.14471 27.2747 2.93535 28.9264 4.23078 30.1321C5.5262 31.3379 7.23026 32.0082 9 32.0082C10.7697 32.0082 12.4738 31.3379 13.7692 30.1321C15.0647 28.9264 15.8553 27.2747 15.982 25.5095C16.1088 23.7443 15.5622 21.9966 14.4523 20.6182C13.3424 19.2397 11.7516 18.3328 10 18.08V18.08ZM9 30C8.01109 30 7.04439 29.7068 6.22215 29.1574C5.3999 28.608 4.75904 27.8271 4.3806 26.9134C4.00216 25.9998 3.90315 24.9945 4.09607 24.0246C4.289 23.0547 4.7652 22.1638 5.46447 21.4645C6.16373 20.7652 7.05464 20.289 8.02455 20.0961C8.99445 19.9032 9.99979 20.0022 10.9134 20.3806C11.827 20.7591 12.6079 21.3999 13.1573 22.2222C13.7068 23.0444 14 24.0111 14 25C14 25.6566 13.8707 26.3068 13.6194 26.9134C13.3681 27.5201 12.9998 28.0713 12.5355 28.5356C12.0712 28.9999 11.52 29.3681 10.9134 29.6194C10.3068 29.8707 9.65661 30 9 30ZM30.75 26H24.5C24.3674 26 24.2402 25.9473 24.1464 25.8536C24.0527 25.7598 24 25.6326 24 25.5V22H30.75C31.0152 22 31.2696 21.8947 31.4571 21.7071C31.6446 21.5196 31.75 21.2652 31.75 21C31.75 20.7348 31.6446 20.4805 31.4571 20.2929C31.2696 20.1054 31.0152 20 30.75 20H24V13.92C25.7516 13.6672 27.3424 12.7603 28.4523 11.3819C29.5622 10.0034 30.1088 8.25573 29.982 6.49053C29.8553 4.72534 29.0647 3.07366 27.7692 1.86791C26.4738 0.662151 24.7697 -0.00817871 23 -0.00817871C21.2303 -0.00817871 19.5262 0.662151 18.2308 1.86791C16.9353 3.07366 16.1447 4.72534 16.018 6.49053C15.8912 8.25573 16.4378 10.0034 17.5477 11.3819C18.6576 12.7603 20.2484 13.6672 22 13.92V25.5C22 26.1631 22.2634 26.799 22.7322 27.2678C23.2011 27.7366 23.837 28 24.5 28H30.75C31.0152 28 31.2696 27.8947 31.4571 27.7071C31.6446 27.5196 31.75 27.2652 31.75 27C31.75 26.7348 31.6446 26.4805 31.4571 26.2929C31.2696 26.1054 31.0152 26 30.75 26ZM18 7.00002C18 6.01112 18.2932 5.04442 18.8427 4.22217C19.3921 3.39993 20.173 2.75907 21.0866 2.38063C22.0002 2.00219 23.0055 1.90317 23.9755 2.0961C24.9454 2.28902 25.8363 2.76523 26.5355 3.46449C27.2348 4.16375 27.711 5.05467 27.9039 6.02457C28.0969 6.99448 27.9978 7.99981 27.6194 8.91344C27.241 9.82707 26.6001 10.608 25.7779 11.1574C24.9556 11.7068 23.9889 12 23 12C21.6739 12 20.4021 11.4732 19.4645 10.5356C18.5268 9.59788 18 8.32611 18 7.00002V7.00002Z" fill="#394762"/>
</g>
<defs>
<clipPath id="clip0">
<rect width="32" height="32" fill="white"/>
</clipPath>
</defs>
</svg>
